public/theme/icons/inactive-fish.svg

<svg width="33" height="34" viewBox="0 0 33 34" fill="none" xmlns="http://www.w3.org/2000/svg">
<circle cx="15" cy="15" r="15" fill="#E1E1E1"/>
<path fill-rule="evenodd" clip-rule="evenodd" d="M29.2591 19.6691C29.7399 18.1996 30 16.6302 30 15C30 6.71573 23.2843 0 15 0C6.71573 0 0 6.71573 0 15C0 23.2843 6.71573 30 15 30C17.0843 30 19.0693 29.5749 20.8731 28.8066L9.06647 17L20.5 14.5L22.8047 13.2148L29.2591 19.6691Z" fill="#E1E1E1"/>
<g filter="url(#filter0_d_105_29646)">
<path fill-rule="evenodd" clip-rule="evenodd" d="M14 11C10 10.9887 8 13.7993 8 14.9989C8 16.1986 10 18.8615 14 18.9978C16.2313 19.0739 18.8306 17.1212 20.2144 15.917C20.2196 15.9125 20.2247 15.9079 20.2298 15.9034C20.4252 16.238 20.7404 16.4998 21.1561 16.692C21.7682 16.9748 22.4745 17.2135 22.8903 16.692C23.1355 16.3844 22.9254 16.1094 22.6927 15.8048C22.5095 15.565 22.3122 15.3068 22.3122 15C22.3122 14.6932 22.5095 14.435 22.6927 14.1952C22.9254 13.8906 23.1355 13.6156 22.8903 13.308C22.4745 12.7865 21.7682 13.0252 21.1561 13.308C20.7347 13.5028 20.4167 13.7691 20.2219 14.1104C20.2154 14.1047 20.2089 14.099 20.2023 14.0934C18.8159 12.9156 16.2262 11.0064 14 11Z" fill="white"/>
</g>
<defs>
<filter id="filter0_d_105_29646" x="4" y="9" width="23" height="16" filterUnits="userSpaceOnUse" color-interpolation-filters="sRGB">
<feFlood flood-opacity="0" result="BackgroundImageFix"/>
<feColorMatrix in="SourceAlpha" type="matrix" values="0 0 0 0 0 0 0 0 0 0 0 0 0 0 0 0 0 0 127 0" result="hardAlpha"/>
<feOffset dy="2"/>
<feGaussianBlur stdDeviation="2"/>
<feComposite in2="hardAlpha" operator="out"/>
<feColorMatrix type="matrix" values="0 0 0 0 0 0 0 0 0 0 0 0 0 0 0 0 0 0 0.1 0"/>
<feBlend mode="normal" in2="BackgroundImageFix" result="effect1_dropShadow_105_29646"/>
<feBlend mode="normal" in="SourceGraphic" in2="effect1_dropShadow_105_29646" result="shape"/>
</filter>
</defs>
</svg>

<svg xmlns="http://www.w3.org/2000/svg" width="33" height="34" fill="none"><circle cx="15" cy="15" r="15" fill="#E1E1E1"/><path fill="#E1E1E1" fill-rule="evenodd" d="M29.26 19.67c.48-1.47.74-3.04.74-4.67 0-8.284-6.716-15-15-15S0 6.716 0 15s6.716 15 15 15c2.084 0 4.07-.425 5.873-1.193L9.066 17 20.5 14.5l2.305-1.285z" clip-rule="evenodd"/><g filter="url(#a)"><path fill="#fff" fill-rule="evenodd" d="M14 11c-4-.011-6 2.8-6 3.999s2 3.862 6 3.999c2.231.076 4.83-1.877 6.214-3.081l.016-.014c.195.335.51.597.926.789.612.283 1.319.521 1.734 0 .245-.308.035-.583-.197-.887-.184-.24-.38-.498-.38-.805s.197-.565.38-.805c.232-.304.442-.58.197-.887-.416-.521-1.122-.283-1.734 0-.421.195-.74.461-.934.802l-.02-.017C18.816 12.916 16.226 11.006 14 11" clip-rule="evenodd"/></g><defs><filter id="a" width="23" height="16" x="4" y="9" color-interpolation-filters="sRGB" filterUnits="userSpaceOnUse"><feFlood flood-opacity="0" result="BackgroundImageFix"/><feColorMatrix in="SourceAlpha" result="hardAlpha" values="0 0 0 0 0 0 0 0 0 0 0 0 0 0 0 0 0 0 127 0"/><feOffset dy="2"/><feGaussianBlur stdDeviation="2"/><feComposite in2="hardAlpha" operator="out"/><feColorMatrix values="0 0 0 0 0 0 0 0 0 0 0 0 0 0 0 0 0 0 0.1 0"/><feBlend in2="BackgroundImageFix" result="effect1_dropShadow_105_29646"/><feBlend in="SourceGraphic" in2="effect1_dropShadow_105_29646" result="shape"/></filter></defs></svg>
